G21
(Outlinex_x12)
G90 G94
G17
G20
(When using Fusion 360 for Personal Use, the feedrate of)
(rapid moves is reduced to match the feedrate of cutting)
(moves, which can increase machining time. Unrestricted rapid)
(moves are available with a Fusion 360 Subscription.)
G90

(2D Contour3)
S18000 M3
G54
(****Traversing max X,Y, Z posisition to ensure machine limits not hit****)
    G1 Z0.6 F150.0
    G1 X6.878 Y20.8854 F150.0
    G1 X-0.125 Y-0.125 F150.0
G0 X1.1526 Y3.3701
Z0.6
(****Adding rapid traverse****)
    G0 X1.1526 Y3.3701 Z0.2
    G1 X1.1526 Y3.3701 Z0.2
G1 Z0.2 F83
(****Adding rapid traverse****)
    G0 X1.1526 Y3.3701 Z0.1694
    G1 X1.1526 Y3.3701 Z0.1694
Z0.1694 F13.12
Z-0.1142
G3 X1.116 Y3.3729 I-0.1071 J-1.1657 F83
X-0.125 Y2.2119 I-0.0705 J-1.1685
G1 Y2.2111
Y0
G3 X0 Y-0.125 I0.125 J0
G1 X2.1527
G3 X3.3755 Y1.0856 I0.0517 J1.1706
X2.2161 Y2.2172 I-1.171 J-0.04
X1.1526 Y3.3701 I-1.1705 J-0.0128
G1 Z-0.2284 F13.12
G3 X1.116 Y3.3729 I-0.1071 J-1.1657 F83
X-0.125 Y2.2119 I-0.0705 J-1.1685
G1 Y2.2111
Y0
G3 X0 Y-0.125 I0.125 J0
G1 X2.1527
G3 X3.3755 Y1.0856 I0.0517 J1.1706
X2.2161 Y2.2172 I-1.171 J-0.04
X1.1526 Y3.3701 I-1.1705 J-0.0128
G1 Z-0.3426 F13.12
G3 X1.116 Y3.3729 I-0.1071 J-1.1657 F83
X-0.125 Y2.2119 I-0.0705 J-1.1685
G1 Y2.2111
Y0
G3 X0 Y-0.125 I0.125 J0
G1 X2.1527
G3 X3.3755 Y1.0856 I0.0517 J1.1706
X2.2161 Y2.2172 I-1.171 J-0.04
X1.1526 Y3.3701 I-1.1705 J-0.0128
G1 Z-0.4569 F13.12
G3 X1.116 Y3.3729 I-0.1071 J-1.1657 F83
X-0.125 Y2.2119 I-0.0705 J-1.1685
G1 Y2.2111
Y0
G3 X0 Y-0.125 I0.125 J0
G1 X2.1527
G3 X3.3755 Y1.0856 I0.0517 J1.1706
X2.2161 Y2.2172 I-1.171 J-0.04
X1.1526 Y3.3701 I-1.1705 J-0.0128
G1 Z-0.5711 F13.12
G3 X1.116 Y3.3729 I-0.1071 J-1.1657 F83
X-0.125 Y2.2119 I-0.0705 J-1.1685
G1 Y2.2111
Y0
G3 X0 Y-0.125 I0.125 J0
G1 X2.1527
G3 X3.3755 Y1.0856 I0.0517 J1.1706
X2.2161 Y2.2172 I-1.171 J-0.04
X1.1526 Y3.3701 I-1.1705 J-0.0128
G1 Z-0.6853 F13.12
G3 X1.116 Y3.3729 I-0.1071 J-1.1657 F83
X-0.125 Y2.2119 I-0.0705 J-1.1685
G1 Y2.2111
Y0
G3 X0 Y-0.125 I0.125 J0
G1 X0.0883
Z-0.6595
X0.5883
Z-0.6853 F13.12
X1.6161 F83
Z-0.6595
X2.1161
Z-0.6853 F13.12
X2.1527 F83
G3 X3.3755 Y1.0856 I0.0517 J1.1706
X2.2161 Y2.2172 I-1.171 J-0.04
X1.1526 Y3.3701 I-1.1705 J-0.0128
G1 Z-0.7995 F13.12
G3 X1.116 Y3.3729 I-0.1071 J-1.1657 F83
X-0.125 Y2.2119 I-0.0705 J-1.1685
G1 Y2.2111
Y0
G3 X0 Y-0.125 I0.125 J0
G1 X0.0883
Z-0.6595
X0.5883
Z-0.7995 F13.12
X1.6161 F83
Z-0.6595
X2.1161
Z-0.7995 F13.12
X2.1527 F83
G3 X3.3755 Y1.0856 I0.0517 J1.1706
X2.2161 Y2.2172 I-1.171 J-0.04
X1.1526 Y3.3701 I-1.1705 J-0.0128
(****Adding rapid traverse****)
    G0 X1.1526 Y3.3701 Z0.6
    G1 X1.1526 Y3.3701 Z0.6
G1 Z0.6
(****Adding rapid traverse****)
    G0 X1.1526 Y3.3701 Z0.6
    G1 X1.1526 Y3.3701 Z0.6
(When using Fusion 360 for Personal Use, the feedrate of)
(****Adding rapid traverse****)
    G0 X1.1526 Y3.3701 Z0.6
    G1 X1.1526 Y3.3701 Z0.6
(rapid moves is reduced to match the feedrate of cutting)
(****Adding rapid traverse****)
    G0 X1.1526 Y3.3701 Z0.6
    G1 X1.1526 Y3.3701 Z0.6
(moves, which can increase machining time. Unrestricted rapid)
(****Adding rapid traverse****)
    G0 X1.1526 Y3.3701 Z0.6
    G1 X1.1526 Y3.3701 Z0.6
(moves are available with a Fusion 360 Subscription.)
(****Adding rapid traverse****)
    G0 X1.1526 Y3.3701 Z0.6
    G1 X1.1526 Y3.3701 Z0.6

(****Adding rapid traverse****)
    G0 X1.1526 Y3.3701 Z0.6
    G1 X1.1526 Y3.3701 Z0.6
(2D Contour3)
G0 X1.1526 Y6.8726
(****Adding rapid traverse****)
    G0 X1.1526 Y6.8726 Z0.6
    G1 X1.1526 Y6.8726 Z0.6
G1 Z0.6 F83
(****Adding rapid traverse****)
    G0 X1.1526 Y6.8726 Z0.2
    G1 X1.1526 Y6.8726 Z0.2
Z0.2
(****Adding rapid traverse****)
    G0 X1.1526 Y6.8726 Z0.1694
    G1 X1.1526 Y6.8726 Z0.1694
Z0.1694 F13.12
Z-0.1142
G3 X1.116 Y6.8754 I-0.1071 J-1.1657 F83
X-0.125 Y5.7144 I-0.0705 J-1.1685
G1 Y5.7136
Y3.5025
G3 X0 Y3.3775 I0.125 J0
G1 X2.1527
G3 X3.3755 Y4.5881 I0.0517 J1.1706
X2.2161 Y5.7197 I-1.171 J-0.04
X1.1526 Y6.8726 I-1.1705 J-0.0128
G1 Z-0.2284 F13.12
G3 X1.116 Y6.8754 I-0.1071 J-1.1657 F83
X-0.125 Y5.7144 I-0.0705 J-1.1685
G1 Y5.7136
Y3.5025
G3 X0 Y3.3775 I0.125 J0
G1 X2.1527
G3 X3.3755 Y4.5881 I0.0517 J1.1706
X2.2161 Y5.7197 I-1.171 J-0.04
X1.1526 Y6.8726 I-1.1705 J-0.0128
G1 Z-0.3426 F13.12
G3 X1.116 Y6.8754 I-0.1071 J-1.1657 F83
X-0.125 Y5.7144 I-0.0705 J-1.1685
G1 Y5.7136
Y3.5025
G3 X0 Y3.3775 I0.125 J0
G1 X2.1527
G3 X3.3755 Y4.5881 I0.0517 J1.1706
X2.2161 Y5.7197 I-1.171 J-0.04
X1.1526 Y6.8726 I-1.1705 J-0.0128
G1 Z-0.4569 F13.12
G3 X1.116 Y6.8754 I-0.1071 J-1.1657 F83
X-0.125 Y5.7144 I-0.0705 J-1.1685
G1 Y5.7136
Y3.5025
G3 X0 Y3.3775 I0.125 J0
G1 X2.1527
G3 X3.3755 Y4.5881 I0.0517 J1.1706
X2.2161 Y5.7197 I-1.171 J-0.04
X1.1526 Y6.8726 I-1.1705 J-0.0128
G1 Z-0.5711 F13.12
G3 X1.116 Y6.8754 I-0.1071 J-1.1657 F83
X-0.125 Y5.7144 I-0.0705 J-1.1685
G1 Y5.7136
Y3.5025
G3 X0 Y3.3775 I0.125 J0
G1 X2.1527
G3 X3.3755 Y4.5881 I0.0517 J1.1706
X2.2161 Y5.7197 I-1.171 J-0.04
X1.1526 Y6.8726 I-1.1705 J-0.0128
G1 Z-0.6853 F13.12
G3 X1.116 Y6.8754 I-0.1071 J-1.1657 F83
X-0.125 Y5.7144 I-0.0705 J-1.1685
G1 Y5.7136
Y3.5025
G3 X0 Y3.3775 I0.125 J0
G1 X0.0883
Z-0.6595
X0.5883
Z-0.6853 F13.12
X1.6161 F83
Z-0.6595
X2.1161
Z-0.6853 F13.12
X2.1527 F83
G3 X3.3755 Y4.5881 I0.0517 J1.1706
X2.2161 Y5.7197 I-1.171 J-0.04
X1.1526 Y6.8726 I-1.1705 J-0.0128
G1 Z-0.7995 F13.12
G3 X1.116 Y6.8754 I-0.1071 J-1.1657 F83
X-0.125 Y5.7144 I-0.0705 J-1.1685
G1 Y5.7136
Y3.5025
G3 X0 Y3.3775 I0.125 J0
G1 X0.0883
Z-0.6595
X0.5883
Z-0.7995 F13.12
X1.6161 F83
Z-0.6595
X2.1161
Z-0.7995 F13.12
X2.1527 F83
G3 X3.3755 Y4.5881 I0.0517 J1.1706
X2.2161 Y5.7197 I-1.171 J-0.04
X1.1526 Y6.8726 I-1.1705 J-0.0128
(****Adding rapid traverse****)
    G0 X1.1526 Y6.8726 Z0.6
    G1 X1.1526 Y6.8726 Z0.6
G1 Z0.6
(****Adding rapid traverse****)
    G0 X1.1526 Y6.8726 Z0.6
    G1 X1.1526 Y6.8726 Z0.6
(When using Fusion 360 for Personal Use, the feedrate of)
(****Adding rapid traverse****)
    G0 X1.1526 Y6.8726 Z0.6
    G1 X1.1526 Y6.8726 Z0.6
(rapid moves is reduced to match the feedrate of cutting)
(****Adding rapid traverse****)
    G0 X1.1526 Y6.8726 Z0.6
    G1 X1.1526 Y6.8726 Z0.6
(moves, which can increase machining time. Unrestricted rapid)
(****Adding rapid traverse****)
    G0 X1.1526 Y6.8726 Z0.6
    G1 X1.1526 Y6.8726 Z0.6
(moves are available with a Fusion 360 Subscription.)
(****Adding rapid traverse****)
    G0 X1.1526 Y6.8726 Z0.6
    G1 X1.1526 Y6.8726 Z0.6

(****Adding rapid traverse****)
    G0 X1.1526 Y6.8726 Z0.6
    G1 X1.1526 Y6.8726 Z0.6
(2D Contour3)
G0 X1.1526 Y10.3751
(****Adding rapid traverse****)
    G0 X1.1526 Y10.3751 Z0.6
    G1 X1.1526 Y10.3751 Z0.6
G1 Z0.6 F83
(****Adding rapid traverse****)
    G0 X1.1526 Y10.3751 Z0.2
    G1 X1.1526 Y10.3751 Z0.2
Z0.2
(****Adding rapid traverse****)
    G0 X1.1526 Y10.3751 Z0.1694
    G1 X1.1526 Y10.3751 Z0.1694
Z0.1694 F13.12
Z-0.1142
G3 X1.116 Y10.3779 I-0.1071 J-1.1657 F83
X-0.125 Y9.2169 I-0.0705 J-1.1685
G1 Y9.2161
Y7.005
G3 X0 Y6.88 I0.125 J0
G1 X2.1527
G3 X3.3755 Y8.0906 I0.0517 J1.1706
X2.2161 Y9.2222 I-1.171 J-0.04
X1.1526 Y10.3751 I-1.1705 J-0.0128
G1 Z-0.2284 F13.12
G3 X1.116 Y10.3779 I-0.1071 J-1.1657 F83
X-0.125 Y9.2169 I-0.0705 J-1.1685
G1 Y9.2161
Y7.005
G3 X0 Y6.88 I0.125 J0
G1 X2.1527
G3 X3.3755 Y8.0906 I0.0517 J1.1706
X2.2161 Y9.2222 I-1.171 J-0.04
X1.1526 Y10.3751 I-1.1705 J-0.0128
G1 Z-0.3426 F13.12
G3 X1.116 Y10.3779 I-0.1071 J-1.1657 F83
X-0.125 Y9.2169 I-0.0705 J-1.1685
G1 Y9.2161
Y7.005
G3 X0 Y6.88 I0.125 J0
G1 X2.1527
G3 X3.3755 Y8.0906 I0.0517 J1.1706
X2.2161 Y9.2222 I-1.171 J-0.04
X1.1526 Y10.3751 I-1.1705 J-0.0128
G1 Z-0.4569 F13.12
G3 X1.116 Y10.3779 I-0.1071 J-1.1657 F83
X-0.125 Y9.2169 I-0.0705 J-1.1685
G1 Y9.2161
Y7.005
G3 X0 Y6.88 I0.125 J0
G1 X2.1527
G3 X3.3755 Y8.0906 I0.0517 J1.1706
X2.2161 Y9.2222 I-1.171 J-0.04
X1.1526 Y10.3751 I-1.1705 J-0.0128
G1 Z-0.5711 F13.12
G3 X1.116 Y10.3779 I-0.1071 J-1.1657 F83
X-0.125 Y9.2169 I-0.0705 J-1.1685
G1 Y9.2161
Y7.005
G3 X0 Y6.88 I0.125 J0
G1 X2.1527
G3 X3.3755 Y8.0906 I0.0517 J1.1706
X2.2161 Y9.2222 I-1.171 J-0.04
X1.1526 Y10.3751 I-1.1705 J-0.0128
G1 Z-0.6853 F13.12
G3 X1.116 Y10.3779 I-0.1071 J-1.1657 F83
X-0.125 Y9.2169 I-0.0705 J-1.1685
G1 Y9.2161
Y7.005
G3 X0 Y6.88 I0.125 J0
G1 X0.0883
Z-0.6595
X0.5883
Z-0.6853 F13.12
X1.6161 F83
Z-0.6595
X2.1161
Z-0.6853 F13.12
X2.1527 F83
G3 X3.3755 Y8.0906 I0.0517 J1.1706
X2.2161 Y9.2222 I-1.171 J-0.04
X1.1526 Y10.3751 I-1.1705 J-0.0128
G1 Z-0.7995 F13.12
G3 X1.116 Y10.3779 I-0.1071 J-1.1657 F83
X-0.125 Y9.2169 I-0.0705 J-1.1685
G1 Y9.2161
Y7.005
G3 X0 Y6.88 I0.125 J0
G1 X0.0883
Z-0.6595
X0.5883
Z-0.7995 F13.12
X1.6161 F83
Z-0.6595
X2.1161
Z-0.7995 F13.12
X2.1527 F83
G3 X3.3755 Y8.0906 I0.0517 J1.1706
X2.2161 Y9.2222 I-1.171 J-0.04
X1.1526 Y10.3751 I-1.1705 J-0.0128
(****Adding rapid traverse****)
    G0 X1.1526 Y10.3751 Z0.6
    G1 X1.1526 Y10.3751 Z0.6
G1 Z0.6
(****Adding rapid traverse****)
    G0 X1.1526 Y10.3751 Z0.6
    G1 X1.1526 Y10.3751 Z0.6
(When using Fusion 360 for Personal Use, the feedrate of)
(****Adding rapid traverse****)
    G0 X1.1526 Y10.3751 Z0.6
    G1 X1.1526 Y10.3751 Z0.6
(rapid moves is reduced to match the feedrate of cutting)
(****Adding rapid traverse****)
    G0 X1.1526 Y10.3751 Z0.6
    G1 X1.1526 Y10.3751 Z0.6
(moves, which can increase machining time. Unrestricted rapid)
(****Adding rapid traverse****)
    G0 X1.1526 Y10.3751 Z0.6
    G1 X1.1526 Y10.3751 Z0.6
(moves are available with a Fusion 360 Subscription.)
(****Adding rapid traverse****)
    G0 X1.1526 Y10.3751 Z0.6
    G1 X1.1526 Y10.3751 Z0.6

(****Adding rapid traverse****)
    G0 X1.1526 Y10.3751 Z0.6
    G1 X1.1526 Y10.3751 Z0.6
(2D Contour3)
G0 X1.1526 Y13.8776
(****Adding rapid traverse****)
    G0 X1.1526 Y13.8776 Z0.6
    G1 X1.1526 Y13.8776 Z0.6
G1 Z0.6 F83
(****Adding rapid traverse****)
    G0 X1.1526 Y13.8776 Z0.2
    G1 X1.1526 Y13.8776 Z0.2
Z0.2
(****Adding rapid traverse****)
    G0 X1.1526 Y13.8776 Z0.1694
    G1 X1.1526 Y13.8776 Z0.1694
Z0.1694 F13.12
Z-0.1142
G3 X1.116 Y13.8804 I-0.1071 J-1.1657 F83
X-0.125 Y12.7194 I-0.0705 J-1.1685
G1 Y12.7186
Y10.5075
G3 X0 Y10.3825 I0.125 J0
G1 X2.1527
G3 X3.3755 Y11.5931 I0.0517 J1.1706
X2.2161 Y12.7247 I-1.171 J-0.04
X1.1526 Y13.8776 I-1.1705 J-0.0128
G1 Z-0.2284 F13.12
G3 X1.116 Y13.8804 I-0.1071 J-1.1657 F83
X-0.125 Y12.7194 I-0.0705 J-1.1685
G1 Y12.7186
Y10.5075
G3 X0 Y10.3825 I0.125 J0
G1 X2.1527
G3 X3.3755 Y11.5931 I0.0517 J1.1706
X2.2161 Y12.7247 I-1.171 J-0.04
X1.1526 Y13.8776 I-1.1705 J-0.0128
G1 Z-0.3426 F13.12
G3 X1.116 Y13.8804 I-0.1071 J-1.1657 F83
X-0.125 Y12.7194 I-0.0705 J-1.1685
G1 Y12.7186
Y10.5075
G3 X0 Y10.3825 I0.125 J0
G1 X2.1527
G3 X3.3755 Y11.5931 I0.0517 J1.1706
X2.2161 Y12.7247 I-1.171 J-0.04
X1.1526 Y13.8776 I-1.1705 J-0.0128
G1 Z-0.4569 F13.12
G3 X1.116 Y13.8804 I-0.1071 J-1.1657 F83
X-0.125 Y12.7194 I-0.0705 J-1.1685
G1 Y12.7186
Y10.5075
G3 X0 Y10.3825 I0.125 J0
G1 X2.1527
G3 X3.3755 Y11.5931 I0.0517 J1.1706
X2.2161 Y12.7247 I-1.171 J-0.04
X1.1526 Y13.8776 I-1.1705 J-0.0128
G1 Z-0.5711 F13.12
G3 X1.116 Y13.8804 I-0.1071 J-1.1657 F83
X-0.125 Y12.7194 I-0.0705 J-1.1685
G1 Y12.7186
Y10.5075
G3 X0 Y10.3825 I0.125 J0
G1 X2.1527
G3 X3.3755 Y11.5931 I0.0517 J1.1706
X2.2161 Y12.7247 I-1.171 J-0.04
X1.1526 Y13.8776 I-1.1705 J-0.0128
G1 Z-0.6853 F13.12
G3 X1.116 Y13.8804 I-0.1071 J-1.1657 F83
X-0.125 Y12.7194 I-0.0705 J-1.1685
G1 Y12.7186
Y10.5075
G3 X0 Y10.3825 I0.125 J0
G1 X0.0883
Z-0.6595
X0.5883
Z-0.6853 F13.12
X1.6161 F83
Z-0.6595
X2.1161
Z-0.6853 F13.12
X2.1527 F83
G3 X3.3755 Y11.5931 I0.0517 J1.1706
X2.2161 Y12.7247 I-1.171 J-0.04
X1.1526 Y13.8776 I-1.1705 J-0.0128
G1 Z-0.7995 F13.12
G3 X1.116 Y13.8804 I-0.1071 J-1.1657 F83
X-0.125 Y12.7194 I-0.0705 J-1.1685
G1 Y12.7186
Y10.5075
G3 X0 Y10.3825 I0.125 J0
G1 X0.0883
Z-0.6595
X0.5883
Z-0.7995 F13.12
X1.6161 F83
Z-0.6595
X2.1161
Z-0.7995 F13.12
X2.1527 F83
G3 X3.3755 Y11.5931 I0.0517 J1.1706
X2.2161 Y12.7247 I-1.171 J-0.04
X1.1526 Y13.8776 I-1.1705 J-0.0128
(****Adding rapid traverse****)
    G0 X1.1526 Y13.8776 Z0.6
    G1 X1.1526 Y13.8776 Z0.6
G1 Z0.6
(****Adding rapid traverse****)
    G0 X1.1526 Y13.8776 Z0.6
    G1 X1.1526 Y13.8776 Z0.6
(When using Fusion 360 for Personal Use, the feedrate of)
(****Adding rapid traverse****)
    G0 X1.1526 Y13.8776 Z0.6
    G1 X1.1526 Y13.8776 Z0.6
(rapid moves is reduced to match the feedrate of cutting)
(****Adding rapid traverse****)
    G0 X1.1526 Y13.8776 Z0.6
    G1 X1.1526 Y13.8776 Z0.6
(moves, which can increase machining time. Unrestricted rapid)
(****Adding rapid traverse****)
    G0 X1.1526 Y13.8776 Z0.6
    G1 X1.1526 Y13.8776 Z0.6
(moves are available with a Fusion 360 Subscription.)
(****Adding rapid traverse****)
    G0 X1.1526 Y13.8776 Z0.6
    G1 X1.1526 Y13.8776 Z0.6

(****Adding rapid traverse****)
    G0 X1.1526 Y13.8776 Z0.6
    G1 X1.1526 Y13.8776 Z0.6
(2D Contour3)
G0 X1.1526 Y17.3801
(****Adding rapid traverse****)
    G0 X1.1526 Y17.3801 Z0.6
    G1 X1.1526 Y17.3801 Z0.6
G1 Z0.6 F83
(****Adding rapid traverse****)
    G0 X1.1526 Y17.3801 Z0.2
    G1 X1.1526 Y17.3801 Z0.2
Z0.2
(****Adding rapid traverse****)
    G0 X1.1526 Y17.3801 Z0.1694
    G1 X1.1526 Y17.3801 Z0.1694
Z0.1694 F13.12
Z-0.1142
G3 X1.116 Y17.3829 I-0.1071 J-1.1657 F83
X-0.125 Y16.2219 I-0.0705 J-1.1685
G1 Y16.2211
Y14.01
G3 X0 Y13.885 I0.125 J0
G1 X2.1527
G3 X3.3755 Y15.0956 I0.0517 J1.1706
X2.2161 Y16.2272 I-1.171 J-0.04
X1.1526 Y17.3801 I-1.1705 J-0.0128
G1 Z-0.2284 F13.12
G3 X1.116 Y17.3829 I-0.1071 J-1.1657 F83
X-0.125 Y16.2219 I-0.0705 J-1.1685
G1 Y16.2211
Y14.01
G3 X0 Y13.885 I0.125 J0
G1 X2.1527
G3 X3.3755 Y15.0956 I0.0517 J1.1706
X2.2161 Y16.2272 I-1.171 J-0.04
X1.1526 Y17.3801 I-1.1705 J-0.0128
G1 Z-0.3426 F13.12
G3 X1.116 Y17.3829 I-0.1071 J-1.1657 F83
X-0.125 Y16.2219 I-0.0705 J-1.1685
G1 Y16.2211
Y14.01
G3 X0 Y13.885 I0.125 J0
G1 X2.1527
G3 X3.3755 Y15.0956 I0.0517 J1.1706
X2.2161 Y16.2272 I-1.171 J-0.04
X1.1526 Y17.3801 I-1.1705 J-0.0128
G1 Z-0.4569 F13.12
G3 X1.116 Y17.3829 I-0.1071 J-1.1657 F83
X-0.125 Y16.2219 I-0.0705 J-1.1685
G1 Y16.2211
Y14.01
G3 X0 Y13.885 I0.125 J0
G1 X2.1527
G3 X3.3755 Y15.0956 I0.0517 J1.1706
X2.2161 Y16.2272 I-1.171 J-0.04
X1.1526 Y17.3801 I-1.1705 J-0.0128
G1 Z-0.5711 F13.12
G3 X1.116 Y17.3829 I-0.1071 J-1.1657 F83
X-0.125 Y16.2219 I-0.0705 J-1.1685
G1 Y16.2211
Y14.01
G3 X0 Y13.885 I0.125 J0
G1 X2.1527
G3 X3.3755 Y15.0956 I0.0517 J1.1706
X2.2161 Y16.2272 I-1.171 J-0.04
X1.1526 Y17.3801 I-1.1705 J-0.0128
G1 Z-0.6853 F13.12
G3 X1.116 Y17.3829 I-0.1071 J-1.1657 F83
X-0.125 Y16.2219 I-0.0705 J-1.1685
G1 Y16.2211
Y14.01
G3 X0 Y13.885 I0.125 J0
G1 X0.0883
Z-0.6595
X0.5883
Z-0.6853 F13.12
X1.6161 F83
Z-0.6595
X2.1161
Z-0.6853 F13.12
X2.1527 F83
G3 X3.3755 Y15.0956 I0.0517 J1.1706
X2.2161 Y16.2272 I-1.171 J-0.04
X1.1526 Y17.3801 I-1.1705 J-0.0128
G1 Z-0.7995 F13.12
G3 X1.116 Y17.3829 I-0.1071 J-1.1657 F83
X-0.125 Y16.2219 I-0.0705 J-1.1685
G1 Y16.2211
Y14.01
G3 X0 Y13.885 I0.125 J0
G1 X0.0883
Z-0.6595
X0.5883
Z-0.7995 F13.12
X1.6161 F83
Z-0.6595
X2.1161
Z-0.7995 F13.12
X2.1527 F83
G3 X3.3755 Y15.0956 I0.0517 J1.1706
X2.2161 Y16.2272 I-1.171 J-0.04
X1.1526 Y17.3801 I-1.1705 J-0.0128
(****Adding rapid traverse****)
    G0 X1.1526 Y17.3801 Z0.6
    G1 X1.1526 Y17.3801 Z0.6
G1 Z0.6
(****Adding rapid traverse****)
    G0 X1.1526 Y17.3801 Z0.6
    G1 X1.1526 Y17.3801 Z0.6
(When using Fusion 360 for Personal Use, the feedrate of)
(****Adding rapid traverse****)
    G0 X1.1526 Y17.3801 Z0.6
    G1 X1.1526 Y17.3801 Z0.6
(rapid moves is reduced to match the feedrate of cutting)
(****Adding rapid traverse****)
    G0 X1.1526 Y17.3801 Z0.6
    G1 X1.1526 Y17.3801 Z0.6
(moves, which can increase machining time. Unrestricted rapid)
(****Adding rapid traverse****)
    G0 X1.1526 Y17.3801 Z0.6
    G1 X1.1526 Y17.3801 Z0.6
(moves are available with a Fusion 360 Subscription.)
(****Adding rapid traverse****)
    G0 X1.1526 Y17.3801 Z0.6
    G1 X1.1526 Y17.3801 Z0.6

(****Adding rapid traverse****)
    G0 X1.1526 Y17.3801 Z0.6
    G1 X1.1526 Y17.3801 Z0.6
(2D Contour3)
G0 X1.1526 Y20.8826
(****Adding rapid traverse****)
    G0 X1.1526 Y20.8826 Z0.6
    G1 X1.1526 Y20.8826 Z0.6
G1 Z0.6 F83
(****Adding rapid traverse****)
    G0 X1.1526 Y20.8826 Z0.2
    G1 X1.1526 Y20.8826 Z0.2
Z0.2
(****Adding rapid traverse****)
    G0 X1.1526 Y20.8826 Z0.1694
    G1 X1.1526 Y20.8826 Z0.1694
Z0.1694 F13.12
Z-0.1142
G3 X1.116 Y20.8854 I-0.1071 J-1.1657 F83
X-0.125 Y19.7244 I-0.0705 J-1.1685
G1 Y19.7236
Y17.5125
G3 X0 Y17.3875 I0.125 J0
G1 X2.1527
G3 X3.3755 Y18.5981 I0.0517 J1.1706
X2.2161 Y19.7297 I-1.171 J-0.04
X1.1526 Y20.8826 I-1.1705 J-0.0128
G1 Z-0.2284 F13.12
G3 X1.116 Y20.8854 I-0.1071 J-1.1657 F83
X-0.125 Y19.7244 I-0.0705 J-1.1685
G1 Y19.7236
Y17.5125
G3 X0 Y17.3875 I0.125 J0
G1 X2.1527
G3 X3.3755 Y18.5981 I0.0517 J1.1706
X2.2161 Y19.7297 I-1.171 J-0.04
X1.1526 Y20.8826 I-1.1705 J-0.0128
G1 Z-0.3426 F13.12
G3 X1.116 Y20.8854 I-0.1071 J-1.1657 F83
X-0.125 Y19.7244 I-0.0705 J-1.1685
G1 Y19.7236
Y17.5125
G3 X0 Y17.3875 I0.125 J0
G1 X2.1527
G3 X3.3755 Y18.5981 I0.0517 J1.1706
X2.2161 Y19.7297 I-1.171 J-0.04
X1.1526 Y20.8826 I-1.1705 J-0.0128
G1 Z-0.4569 F13.12
G3 X1.116 Y20.8854 I-0.1071 J-1.1657 F83
X-0.125 Y19.7244 I-0.0705 J-1.1685
G1 Y19.7236
Y17.5125
G3 X0 Y17.3875 I0.125 J0
G1 X2.1527
G3 X3.3755 Y18.5981 I0.0517 J1.1706
X2.2161 Y19.7297 I-1.171 J-0.04
X1.1526 Y20.8826 I-1.1705 J-0.0128
G1 Z-0.5711 F13.12
G3 X1.116 Y20.8854 I-0.1071 J-1.1657 F83
X-0.125 Y19.7244 I-0.0705 J-1.1685
G1 Y19.7236
Y17.5125
G3 X0 Y17.3875 I0.125 J0
G1 X2.1527
G3 X3.3755 Y18.5981 I0.0517 J1.1706
X2.2161 Y19.7297 I-1.171 J-0.04
X1.1526 Y20.8826 I-1.1705 J-0.0128
G1 Z-0.6853 F13.12
G3 X1.116 Y20.8854 I-0.1071 J-1.1657 F83
X-0.125 Y19.7244 I-0.0705 J-1.1685
G1 Y19.7236
Y17.5125
G3 X0 Y17.3875 I0.125 J0
G1 X0.0883
Z-0.6595
X0.5883
Z-0.6853 F13.12
X1.6161 F83
Z-0.6595
X2.1161
Z-0.6853 F13.12
X2.1527 F83
G3 X3.3755 Y18.5981 I0.0517 J1.1706
X2.2161 Y19.7297 I-1.171 J-0.04
X1.1526 Y20.8826 I-1.1705 J-0.0128
G1 Z-0.7995 F13.12
G3 X1.116 Y20.8854 I-0.1071 J-1.1657 F83
X-0.125 Y19.7244 I-0.0705 J-1.1685
G1 Y19.7236
Y17.5125
G3 X0 Y17.3875 I0.125 J0
G1 X0.0883
Z-0.6595
X0.5883
Z-0.7995 F13.12
X1.6161 F83
Z-0.6595
X2.1161
Z-0.7995 F13.12
X2.1527 F83
G3 X3.3755 Y18.5981 I0.0517 J1.1706
X2.2161 Y19.7297 I-1.171 J-0.04
X1.1526 Y20.8826 I-1.1705 J-0.0128
(****Adding rapid traverse****)
    G0 X1.1526 Y20.8826 Z0.6
    G1 X1.1526 Y20.8826 Z0.6
G1 Z0.6
(****Adding rapid traverse****)
    G0 X1.1526 Y20.8826 Z0.6
    G1 X1.1526 Y20.8826 Z0.6
(When using Fusion 360 for Personal Use, the feedrate of)
(****Adding rapid traverse****)
    G0 X1.1526 Y20.8826 Z0.6
    G1 X1.1526 Y20.8826 Z0.6
(rapid moves is reduced to match the feedrate of cutting)
(****Adding rapid traverse****)
    G0 X1.1526 Y20.8826 Z0.6
    G1 X1.1526 Y20.8826 Z0.6
(moves, which can increase machining time. Unrestricted rapid)
(****Adding rapid traverse****)
    G0 X1.1526 Y20.8826 Z0.6
    G1 X1.1526 Y20.8826 Z0.6
(moves are available with a Fusion 360 Subscription.)
(****Adding rapid traverse****)
    G0 X1.1526 Y20.8826 Z0.6
    G1 X1.1526 Y20.8826 Z0.6

(****Adding rapid traverse****)
    G0 X1.1526 Y20.8826 Z0.6
    G1 X1.1526 Y20.8826 Z0.6
(2D Contour3)
G0 X4.6551 Y3.3701
(****Adding rapid traverse****)
    G0 X4.6551 Y3.3701 Z0.6
    G1 X4.6551 Y3.3701 Z0.6
G1 Z0.6 F83
(****Adding rapid traverse****)
    G0 X4.6551 Y3.3701 Z0.2
    G1 X4.6551 Y3.3701 Z0.2
Z0.2
(****Adding rapid traverse****)
    G0 X4.6551 Y3.3701 Z0.1694
    G1 X4.6551 Y3.3701 Z0.1694
Z0.1694 F13.12
Z-0.1142
G3 X4.6185 Y3.3729 I-0.1071 J-1.1657 F83
X3.3775 Y2.2119 I-0.0705 J-1.1685
G1 Y2.2111
Y0
G3 X3.5025 Y-0.125 I0.125 J0
G1 X5.6552
G3 X6.878 Y1.0856 I0.0517 J1.1706
X5.7186 Y2.2172 I-1.171 J-0.04
X4.6551 Y3.3701 I-1.1705 J-0.0128
G1 Z-0.2284 F13.12
G3 X4.6185 Y3.3729 I-0.1071 J-1.1657 F83
X3.3775 Y2.2119 I-0.0705 J-1.1685
G1 Y2.2111
Y0
G3 X3.5025 Y-0.125 I0.125 J0
G1 X5.6552
G3 X6.878 Y1.0856 I0.0517 J1.1706
X5.7186 Y2.2172 I-1.171 J-0.04
X4.6551 Y3.3701 I-1.1705 J-0.0128
G1 Z-0.3426 F13.12
G3 X4.6185 Y3.3729 I-0.1071 J-1.1657 F83
X3.3775 Y2.2119 I-0.0705 J-1.1685
G1 Y2.2111
Y0
G3 X3.5025 Y-0.125 I0.125 J0
G1 X5.6552
G3 X6.878 Y1.0856 I0.0517 J1.1706
X5.7186 Y2.2172 I-1.171 J-0.04
X4.6551 Y3.3701 I-1.1705 J-0.0128
G1 Z-0.4569 F13.12
G3 X4.6185 Y3.3729 I-0.1071 J-1.1657 F83
X3.3775 Y2.2119 I-0.0705 J-1.1685
G1 Y2.2111
Y0
G3 X3.5025 Y-0.125 I0.125 J0
G1 X5.6552
G3 X6.878 Y1.0856 I0.0517 J1.1706
X5.7186 Y2.2172 I-1.171 J-0.04
X4.6551 Y3.3701 I-1.1705 J-0.0128
G1 Z-0.5711 F13.12
G3 X4.6185 Y3.3729 I-0.1071 J-1.1657 F83
X3.3775 Y2.2119 I-0.0705 J-1.1685
G1 Y2.2111
Y0
G3 X3.5025 Y-0.125 I0.125 J0
G1 X5.6552
G3 X6.878 Y1.0856 I0.0517 J1.1706
X5.7186 Y2.2172 I-1.171 J-0.04
X4.6551 Y3.3701 I-1.1705 J-0.0128
G1 Z-0.6853 F13.12
G3 X4.6185 Y3.3729 I-0.1071 J-1.1657 F83
X3.3775 Y2.2119 I-0.0705 J-1.1685
G1 Y2.2111
Y0
G3 X3.5025 Y-0.125 I0.125 J0
G1 X3.5908
Z-0.6595
X4.0908
Z-0.6853 F13.12
X5.1186 F83
Z-0.6595
X5.6186
Z-0.6853 F13.12
X5.6552 F83
G3 X6.878 Y1.0856 I0.0517 J1.1706
X5.7186 Y2.2172 I-1.171 J-0.04
X4.6551 Y3.3701 I-1.1705 J-0.0128
G1 Z-0.7995 F13.12
G3 X4.6185 Y3.3729 I-0.1071 J-1.1657 F83
X3.3775 Y2.2119 I-0.0705 J-1.1685
G1 Y2.2111
Y0
G3 X3.5025 Y-0.125 I0.125 J0
G1 X3.5908
Z-0.6595
X4.0908
Z-0.7995 F13.12
X5.1186 F83
Z-0.6595
X5.6186
Z-0.7995 F13.12
X5.6552 F83
G3 X6.878 Y1.0856 I0.0517 J1.1706
X5.7186 Y2.2172 I-1.171 J-0.04
X4.6551 Y3.3701 I-1.1705 J-0.0128
(****Adding rapid traverse****)
    G0 X4.6551 Y3.3701 Z0.6
    G1 X4.6551 Y3.3701 Z0.6
G1 Z0.6
(****Adding rapid traverse****)
    G0 X4.6551 Y3.3701 Z0.6
    G1 X4.6551 Y3.3701 Z0.6
(When using Fusion 360 for Personal Use, the feedrate of)
(****Adding rapid traverse****)
    G0 X4.6551 Y3.3701 Z0.6
    G1 X4.6551 Y3.3701 Z0.6
(rapid moves is reduced to match the feedrate of cutting)
(****Adding rapid traverse****)
    G0 X4.6551 Y3.3701 Z0.6
    G1 X4.6551 Y3.3701 Z0.6
(moves, which can increase machining time. Unrestricted rapid)
(****Adding rapid traverse****)
    G0 X4.6551 Y3.3701 Z0.6
    G1 X4.6551 Y3.3701 Z0.6
(moves are available with a Fusion 360 Subscription.)
(****Adding rapid traverse****)
    G0 X4.6551 Y3.3701 Z0.6
    G1 X4.6551 Y3.3701 Z0.6

(****Adding rapid traverse****)
    G0 X4.6551 Y3.3701 Z0.6
    G1 X4.6551 Y3.3701 Z0.6
(2D Contour3)
G0 X4.6551 Y6.8726
(****Adding rapid traverse****)
    G0 X4.6551 Y6.8726 Z0.6
    G1 X4.6551 Y6.8726 Z0.6
G1 Z0.6 F83
(****Adding rapid traverse****)
    G0 X4.6551 Y6.8726 Z0.2
    G1 X4.6551 Y6.8726 Z0.2
Z0.2
(****Adding rapid traverse****)
    G0 X4.6551 Y6.8726 Z0.1694
    G1 X4.6551 Y6.8726 Z0.1694
Z0.1694 F13.12
Z-0.1142
G3 X4.6185 Y6.8754 I-0.1071 J-1.1657 F83
X3.3775 Y5.7144 I-0.0705 J-1.1685
G1 Y5.7136
Y3.5025
G3 X3.5025 Y3.3775 I0.125 J0
G1 X5.6552
G3 X6.878 Y4.5881 I0.0517 J1.1706
X5.7186 Y5.7197 I-1.171 J-0.04
X4.6551 Y6.8726 I-1.1705 J-0.0128
G1 Z-0.2284 F13.12
G3 X4.6185 Y6.8754 I-0.1071 J-1.1657 F83
X3.3775 Y5.7144 I-0.0705 J-1.1685
G1 Y5.7136
Y3.5025
G3 X3.5025 Y3.3775 I0.125 J0
G1 X5.6552
G3 X6.878 Y4.5881 I0.0517 J1.1706
X5.7186 Y5.7197 I-1.171 J-0.04
X4.6551 Y6.8726 I-1.1705 J-0.0128
G1 Z-0.3426 F13.12
G3 X4.6185 Y6.8754 I-0.1071 J-1.1657 F83
X3.3775 Y5.7144 I-0.0705 J-1.1685
G1 Y5.7136
Y3.5025
G3 X3.5025 Y3.3775 I0.125 J0
G1 X5.6552
G3 X6.878 Y4.5881 I0.0517 J1.1706
X5.7186 Y5.7197 I-1.171 J-0.04
X4.6551 Y6.8726 I-1.1705 J-0.0128
G1 Z-0.4569 F13.12
G3 X4.6185 Y6.8754 I-0.1071 J-1.1657 F83
X3.3775 Y5.7144 I-0.0705 J-1.1685
G1 Y5.7136
Y3.5025
G3 X3.5025 Y3.3775 I0.125 J0
G1 X5.6552
G3 X6.878 Y4.5881 I0.0517 J1.1706
X5.7186 Y5.7197 I-1.171 J-0.04
X4.6551 Y6.8726 I-1.1705 J-0.0128
G1 Z-0.5711 F13.12
G3 X4.6185 Y6.8754 I-0.1071 J-1.1657 F83
X3.3775 Y5.7144 I-0.0705 J-1.1685
G1 Y5.7136
Y3.5025
G3 X3.5025 Y3.3775 I0.125 J0
G1 X5.6552
G3 X6.878 Y4.5881 I0.0517 J1.1706
X5.7186 Y5.7197 I-1.171 J-0.04
X4.6551 Y6.8726 I-1.1705 J-0.0128
G1 Z-0.6853 F13.12
G3 X4.6185 Y6.8754 I-0.1071 J-1.1657 F83
X3.3775 Y5.7144 I-0.0705 J-1.1685
G1 Y5.7136
Y3.5025
G3 X3.5025 Y3.3775 I0.125 J0
G1 X3.5908
Z-0.6595
X4.0908
Z-0.6853 F13.12
X5.1186 F83
Z-0.6595
X5.6186
Z-0.6853 F13.12
X5.6552 F83
G3 X6.878 Y4.5881 I0.0517 J1.1706
X5.7186 Y5.7197 I-1.171 J-0.04
X4.6551 Y6.8726 I-1.1705 J-0.0128
G1 Z-0.7995 F13.12
G3 X4.6185 Y6.8754 I-0.1071 J-1.1657 F83
X3.3775 Y5.7144 I-0.0705 J-1.1685
G1 Y5.7136
Y3.5025
G3 X3.5025 Y3.3775 I0.125 J0
G1 X3.5908
Z-0.6595
X4.0908
Z-0.7995 F13.12
X5.1186 F83
Z-0.6595
X5.6186
Z-0.7995 F13.12
X5.6552 F83
G3 X6.878 Y4.5881 I0.0517 J1.1706
X5.7186 Y5.7197 I-1.171 J-0.04
X4.6551 Y6.8726 I-1.1705 J-0.0128
(****Adding rapid traverse****)
    G0 X4.6551 Y6.8726 Z0.6
    G1 X4.6551 Y6.8726 Z0.6
G1 Z0.6
(****Adding rapid traverse****)
    G0 X4.6551 Y6.8726 Z0.6
    G1 X4.6551 Y6.8726 Z0.6
(When using Fusion 360 for Personal Use, the feedrate of)
(****Adding rapid traverse****)
    G0 X4.6551 Y6.8726 Z0.6
    G1 X4.6551 Y6.8726 Z0.6
(rapid moves is reduced to match the feedrate of cutting)
(****Adding rapid traverse****)
    G0 X4.6551 Y6.8726 Z0.6
    G1 X4.6551 Y6.8726 Z0.6
(moves, which can increase machining time. Unrestricted rapid)
(****Adding rapid traverse****)
    G0 X4.6551 Y6.8726 Z0.6
    G1 X4.6551 Y6.8726 Z0.6
(moves are available with a Fusion 360 Subscription.)
(****Adding rapid traverse****)
    G0 X4.6551 Y6.8726 Z0.6
    G1 X4.6551 Y6.8726 Z0.6

(****Adding rapid traverse****)
    G0 X4.6551 Y6.8726 Z0.6
    G1 X4.6551 Y6.8726 Z0.6
(2D Contour3)
G0 X4.6551 Y10.3751
(****Adding rapid traverse****)
    G0 X4.6551 Y10.3751 Z0.6
    G1 X4.6551 Y10.3751 Z0.6
G1 Z0.6 F83
(****Adding rapid traverse****)
    G0 X4.6551 Y10.3751 Z0.2
    G1 X4.6551 Y10.3751 Z0.2
Z0.2
(****Adding rapid traverse****)
    G0 X4.6551 Y10.3751 Z0.1694
    G1 X4.6551 Y10.3751 Z0.1694
Z0.1694 F13.12
Z-0.1142
G3 X4.6185 Y10.3779 I-0.1071 J-1.1657 F83
X3.3775 Y9.2169 I-0.0705 J-1.1685
G1 Y9.2161
Y7.005
G3 X3.5025 Y6.88 I0.125 J0
G1 X5.6552
G3 X6.878 Y8.0906 I0.0517 J1.1706
X5.7186 Y9.2222 I-1.171 J-0.04
X4.6551 Y10.3751 I-1.1705 J-0.0128
G1 Z-0.2284 F13.12
G3 X4.6185 Y10.3779 I-0.1071 J-1.1657 F83
X3.3775 Y9.2169 I-0.0705 J-1.1685
G1 Y9.2161
Y7.005
G3 X3.5025 Y6.88 I0.125 J0
G1 X5.6552
G3 X6.878 Y8.0906 I0.0517 J1.1706
X5.7186 Y9.2222 I-1.171 J-0.04
X4.6551 Y10.3751 I-1.1705 J-0.0128
G1 Z-0.3426 F13.12
G3 X4.6185 Y10.3779 I-0.1071 J-1.1657 F83
X3.3775 Y9.2169 I-0.0705 J-1.1685
G1 Y9.2161
Y7.005
G3 X3.5025 Y6.88 I0.125 J0
G1 X5.6552
G3 X6.878 Y8.0906 I0.0517 J1.1706
X5.7186 Y9.2222 I-1.171 J-0.04
X4.6551 Y10.3751 I-1.1705 J-0.0128
G1 Z-0.4569 F13.12
G3 X4.6185 Y10.3779 I-0.1071 J-1.1657 F83
X3.3775 Y9.2169 I-0.0705 J-1.1685
G1 Y9.2161
Y7.005
G3 X3.5025 Y6.88 I0.125 J0
G1 X5.6552
G3 X6.878 Y8.0906 I0.0517 J1.1706
X5.7186 Y9.2222 I-1.171 J-0.04
X4.6551 Y10.3751 I-1.1705 J-0.0128
G1 Z-0.5711 F13.12
G3 X4.6185 Y10.3779 I-0.1071 J-1.1657 F83
X3.3775 Y9.2169 I-0.0705 J-1.1685
G1 Y9.2161
Y7.005
G3 X3.5025 Y6.88 I0.125 J0
G1 X5.6552
G3 X6.878 Y8.0906 I0.0517 J1.1706
X5.7186 Y9.2222 I-1.171 J-0.04
X4.6551 Y10.3751 I-1.1705 J-0.0128
G1 Z-0.6853 F13.12
G3 X4.6185 Y10.3779 I-0.1071 J-1.1657 F83
X3.3775 Y9.2169 I-0.0705 J-1.1685
G1 Y9.2161
Y7.005
G3 X3.5025 Y6.88 I0.125 J0
G1 X3.5908
Z-0.6595
X4.0908
Z-0.6853 F13.12
X5.1186 F83
Z-0.6595
X5.6186
Z-0.6853 F13.12
X5.6552 F83
G3 X6.878 Y8.0906 I0.0517 J1.1706
X5.7186 Y9.2222 I-1.171 J-0.04
X4.6551 Y10.3751 I-1.1705 J-0.0128
G1 Z-0.7995 F13.12
G3 X4.6185 Y10.3779 I-0.1071 J-1.1657 F83
X3.3775 Y9.2169 I-0.0705 J-1.1685
G1 Y9.2161
Y7.005
G3 X3.5025 Y6.88 I0.125 J0
G1 X3.5908
Z-0.6595
X4.0908
Z-0.7995 F13.12
X5.1186 F83
Z-0.6595
X5.6186
Z-0.7995 F13.12
X5.6552 F83
G3 X6.878 Y8.0906 I0.0517 J1.1706
X5.7186 Y9.2222 I-1.171 J-0.04
X4.6551 Y10.3751 I-1.1705 J-0.0128
(****Adding rapid traverse****)
    G0 X4.6551 Y10.3751 Z0.6
    G1 X4.6551 Y10.3751 Z0.6
G1 Z0.6
(****Adding rapid traverse****)
    G0 X4.6551 Y10.3751 Z0.6
    G1 X4.6551 Y10.3751 Z0.6
(When using Fusion 360 for Personal Use, the feedrate of)
(****Adding rapid traverse****)
    G0 X4.6551 Y10.3751 Z0.6
    G1 X4.6551 Y10.3751 Z0.6
(rapid moves is reduced to match the feedrate of cutting)
(****Adding rapid traverse****)
    G0 X4.6551 Y10.3751 Z0.6
    G1 X4.6551 Y10.3751 Z0.6
(moves, which can increase machining time. Unrestricted rapid)
(****Adding rapid traverse****)
    G0 X4.6551 Y10.3751 Z0.6
    G1 X4.6551 Y10.3751 Z0.6
(moves are available with a Fusion 360 Subscription.)
(****Adding rapid traverse****)
    G0 X4.6551 Y10.3751 Z0.6
    G1 X4.6551 Y10.3751 Z0.6

(****Adding rapid traverse****)
    G0 X4.6551 Y10.3751 Z0.6
    G1 X4.6551 Y10.3751 Z0.6
(2D Contour3)
G0 X4.6551 Y13.8776
(****Adding rapid traverse****)
    G0 X4.6551 Y13.8776 Z0.6
    G1 X4.6551 Y13.8776 Z0.6
G1 Z0.6 F83
(****Adding rapid traverse****)
    G0 X4.6551 Y13.8776 Z0.2
    G1 X4.6551 Y13.8776 Z0.2
Z0.2
(****Adding rapid traverse****)
    G0 X4.6551 Y13.8776 Z0.1694
    G1 X4.6551 Y13.8776 Z0.1694
Z0.1694 F13.12
Z-0.1142
G3 X4.6185 Y13.8804 I-0.1071 J-1.1657 F83
X3.3775 Y12.7194 I-0.0705 J-1.1685
G1 Y12.7186
Y10.5075
G3 X3.5025 Y10.3825 I0.125 J0
G1 X5.6552
G3 X6.878 Y11.5931 I0.0517 J1.1706
X5.7186 Y12.7247 I-1.171 J-0.04
X4.6551 Y13.8776 I-1.1705 J-0.0128
G1 Z-0.2284 F13.12
G3 X4.6185 Y13.8804 I-0.1071 J-1.1657 F83
X3.3775 Y12.7194 I-0.0705 J-1.1685
G1 Y12.7186
Y10.5075
G3 X3.5025 Y10.3825 I0.125 J0
G1 X5.6552
G3 X6.878 Y11.5931 I0.0517 J1.1706
X5.7186 Y12.7247 I-1.171 J-0.04
X4.6551 Y13.8776 I-1.1705 J-0.0128
G1 Z-0.3426 F13.12
G3 X4.6185 Y13.8804 I-0.1071 J-1.1657 F83
X3.3775 Y12.7194 I-0.0705 J-1.1685
G1 Y12.7186
Y10.5075
G3 X3.5025 Y10.3825 I0.125 J0
G1 X5.6552
G3 X6.878 Y11.5931 I0.0517 J1.1706
X5.7186 Y12.7247 I-1.171 J-0.04
X4.6551 Y13.8776 I-1.1705 J-0.0128
G1 Z-0.4569 F13.12
G3 X4.6185 Y13.8804 I-0.1071 J-1.1657 F83
X3.3775 Y12.7194 I-0.0705 J-1.1685
G1 Y12.7186
Y10.5075
G3 X3.5025 Y10.3825 I0.125 J0
G1 X5.6552
G3 X6.878 Y11.5931 I0.0517 J1.1706
X5.7186 Y12.7247 I-1.171 J-0.04
X4.6551 Y13.8776 I-1.1705 J-0.0128
G1 Z-0.5711 F13.12
G3 X4.6185 Y13.8804 I-0.1071 J-1.1657 F83
X3.3775 Y12.7194 I-0.0705 J-1.1685
G1 Y12.7186
Y10.5075
G3 X3.5025 Y10.3825 I0.125 J0
G1 X5.6552
G3 X6.878 Y11.5931 I0.0517 J1.1706
X5.7186 Y12.7247 I-1.171 J-0.04
X4.6551 Y13.8776 I-1.1705 J-0.0128
G1 Z-0.6853 F13.12
G3 X4.6185 Y13.8804 I-0.1071 J-1.1657 F83
X3.3775 Y12.7194 I-0.0705 J-1.1685
G1 Y12.7186
Y10.5075
G3 X3.5025 Y10.3825 I0.125 J0
G1 X3.5908
Z-0.6595
X4.0908
Z-0.6853 F13.12
X5.1186 F83
Z-0.6595
X5.6186
Z-0.6853 F13.12
X5.6552 F83
G3 X6.878 Y11.5931 I0.0517 J1.1706
X5.7186 Y12.7247 I-1.171 J-0.04
X4.6551 Y13.8776 I-1.1705 J-0.0128
G1 Z-0.7995 F13.12
G3 X4.6185 Y13.8804 I-0.1071 J-1.1657 F83
X3.3775 Y12.7194 I-0.0705 J-1.1685
G1 Y12.7186
Y10.5075
G3 X3.5025 Y10.3825 I0.125 J0
G1 X3.5908
Z-0.6595
X4.0908
Z-0.7995 F13.12
X5.1186 F83
Z-0.6595
X5.6186
Z-0.7995 F13.12
X5.6552 F83
G3 X6.878 Y11.5931 I0.0517 J1.1706
X5.7186 Y12.7247 I-1.171 J-0.04
X4.6551 Y13.8776 I-1.1705 J-0.0128
(****Adding rapid traverse****)
    G0 X4.6551 Y13.8776 Z0.6
    G1 X4.6551 Y13.8776 Z0.6
G1 Z0.6
(****Adding rapid traverse****)
    G0 X4.6551 Y13.8776 Z0.6
    G1 X4.6551 Y13.8776 Z0.6
(When using Fusion 360 for Personal Use, the feedrate of)
(****Adding rapid traverse****)
    G0 X4.6551 Y13.8776 Z0.6
    G1 X4.6551 Y13.8776 Z0.6
(rapid moves is reduced to match the feedrate of cutting)
(****Adding rapid traverse****)
    G0 X4.6551 Y13.8776 Z0.6
    G1 X4.6551 Y13.8776 Z0.6
(moves, which can increase machining time. Unrestricted rapid)
(****Adding rapid traverse****)
    G0 X4.6551 Y13.8776 Z0.6
    G1 X4.6551 Y13.8776 Z0.6
(moves are available with a Fusion 360 Subscription.)
(****Adding rapid traverse****)
    G0 X4.6551 Y13.8776 Z0.6
    G1 X4.6551 Y13.8776 Z0.6

(****Adding rapid traverse****)
    G0 X4.6551 Y13.8776 Z0.6
    G1 X4.6551 Y13.8776 Z0.6
(2D Contour3)
G0 X4.6551 Y17.3801
(****Adding rapid traverse****)
    G0 X4.6551 Y17.3801 Z0.6
    G1 X4.6551 Y17.3801 Z0.6
G1 Z0.6 F83
(****Adding rapid traverse****)
    G0 X4.6551 Y17.3801 Z0.2
    G1 X4.6551 Y17.3801 Z0.2
Z0.2
(****Adding rapid traverse****)
    G0 X4.6551 Y17.3801 Z0.1694
    G1 X4.6551 Y17.3801 Z0.1694
Z0.1694 F13.12
Z-0.1142
G3 X4.6185 Y17.3829 I-0.1071 J-1.1657 F83
X3.3775 Y16.2219 I-0.0705 J-1.1685
G1 Y16.2211
Y14.01
G3 X3.5025 Y13.885 I0.125 J0
G1 X5.6552
G3 X6.878 Y15.0956 I0.0517 J1.1706
X5.7186 Y16.2272 I-1.171 J-0.04
X4.6551 Y17.3801 I-1.1705 J-0.0128
G1 Z-0.2284 F13.12
G3 X4.6185 Y17.3829 I-0.1071 J-1.1657 F83
X3.3775 Y16.2219 I-0.0705 J-1.1685
G1 Y16.2211
Y14.01
G3 X3.5025 Y13.885 I0.125 J0
G1 X5.6552
G3 X6.878 Y15.0956 I0.0517 J1.1706
X5.7186 Y16.2272 I-1.171 J-0.04
X4.6551 Y17.3801 I-1.1705 J-0.0128
G1 Z-0.3426 F13.12
G3 X4.6185 Y17.3829 I-0.1071 J-1.1657 F83
X3.3775 Y16.2219 I-0.0705 J-1.1685
G1 Y16.2211
Y14.01
G3 X3.5025 Y13.885 I0.125 J0
G1 X5.6552
G3 X6.878 Y15.0956 I0.0517 J1.1706
X5.7186 Y16.2272 I-1.171 J-0.04
X4.6551 Y17.3801 I-1.1705 J-0.0128
G1 Z-0.4569 F13.12
G3 X4.6185 Y17.3829 I-0.1071 J-1.1657 F83
X3.3775 Y16.2219 I-0.0705 J-1.1685
G1 Y16.2211
Y14.01
G3 X3.5025 Y13.885 I0.125 J0
G1 X5.6552
G3 X6.878 Y15.0956 I0.0517 J1.1706
X5.7186 Y16.2272 I-1.171 J-0.04
X4.6551 Y17.3801 I-1.1705 J-0.0128
G1 Z-0.5711 F13.12
G3 X4.6185 Y17.3829 I-0.1071 J-1.1657 F83
X3.3775 Y16.2219 I-0.0705 J-1.1685
G1 Y16.2211
Y14.01
G3 X3.5025 Y13.885 I0.125 J0
G1 X5.6552
G3 X6.878 Y15.0956 I0.0517 J1.1706
X5.7186 Y16.2272 I-1.171 J-0.04
X4.6551 Y17.3801 I-1.1705 J-0.0128
G1 Z-0.6853 F13.12
G3 X4.6185 Y17.3829 I-0.1071 J-1.1657 F83
X3.3775 Y16.2219 I-0.0705 J-1.1685
G1 Y16.2211
Y14.01
G3 X3.5025 Y13.885 I0.125 J0
G1 X3.5908
Z-0.6595
X4.0908
Z-0.6853 F13.12
X5.1186 F83
Z-0.6595
X5.6186
Z-0.6853 F13.12
X5.6552 F83
G3 X6.878 Y15.0956 I0.0517 J1.1706
X5.7186 Y16.2272 I-1.171 J-0.04
X4.6551 Y17.3801 I-1.1705 J-0.0128
G1 Z-0.7995 F13.12
G3 X4.6185 Y17.3829 I-0.1071 J-1.1657 F83
X3.3775 Y16.2219 I-0.0705 J-1.1685
G1 Y16.2211
Y14.01
G3 X3.5025 Y13.885 I0.125 J0
G1 X3.5908
Z-0.6595
X4.0908
Z-0.7995 F13.12
X5.1186 F83
Z-0.6595
X5.6186
Z-0.7995 F13.12
X5.6552 F83
G3 X6.878 Y15.0956 I0.0517 J1.1706
X5.7186 Y16.2272 I-1.171 J-0.04
X4.6551 Y17.3801 I-1.1705 J-0.0128
(****Adding rapid traverse****)
    G0 X4.6551 Y17.3801 Z0.6
    G1 X4.6551 Y17.3801 Z0.6
G1 Z0.6
(****Adding rapid traverse****)
    G0 X4.6551 Y17.3801 Z0.6
    G1 X4.6551 Y17.3801 Z0.6
(When using Fusion 360 for Personal Use, the feedrate of)
(****Adding rapid traverse****)
    G0 X4.6551 Y17.3801 Z0.6
    G1 X4.6551 Y17.3801 Z0.6
(rapid moves is reduced to match the feedrate of cutting)
(****Adding rapid traverse****)
    G0 X4.6551 Y17.3801 Z0.6
    G1 X4.6551 Y17.3801 Z0.6
(moves, which can increase machining time. Unrestricted rapid)
(****Adding rapid traverse****)
    G0 X4.6551 Y17.3801 Z0.6
    G1 X4.6551 Y17.3801 Z0.6
(moves are available with a Fusion 360 Subscription.)
(****Adding rapid traverse****)
    G0 X4.6551 Y17.3801 Z0.6
    G1 X4.6551 Y17.3801 Z0.6

(****Adding rapid traverse****)
    G0 X4.6551 Y17.3801 Z0.6
    G1 X4.6551 Y17.3801 Z0.6
(2D Contour3)
G0 X4.6551 Y20.8826
(****Adding rapid traverse****)
    G0 X4.6551 Y20.8826 Z0.6
    G1 X4.6551 Y20.8826 Z0.6
G1 Z0.6 F83
(****Adding rapid traverse****)
    G0 X4.6551 Y20.8826 Z0.2
    G1 X4.6551 Y20.8826 Z0.2
Z0.2
(****Adding rapid traverse****)
    G0 X4.6551 Y20.8826 Z0.1694
    G1 X4.6551 Y20.8826 Z0.1694
Z0.1694 F13.12
Z-0.1142
G3 X4.6185 Y20.8854 I-0.1071 J-1.1657 F83
X3.3775 Y19.7244 I-0.0705 J-1.1685
G1 Y19.7236
Y17.5125
G3 X3.5025 Y17.3875 I0.125 J0
G1 X5.6552
G3 X6.878 Y18.5981 I0.0517 J1.1706
X5.7186 Y19.7297 I-1.171 J-0.04
X4.6551 Y20.8826 I-1.1705 J-0.0128
G1 Z-0.2284 F13.12
G3 X4.6185 Y20.8854 I-0.1071 J-1.1657 F83
X3.3775 Y19.7244 I-0.0705 J-1.1685
G1 Y19.7236
Y17.5125
G3 X3.5025 Y17.3875 I0.125 J0
G1 X5.6552
G3 X6.878 Y18.5981 I0.0517 J1.1706
X5.7186 Y19.7297 I-1.171 J-0.04
X4.6551 Y20.8826 I-1.1705 J-0.0128
G1 Z-0.3426 F13.12
G3 X4.6185 Y20.8854 I-0.1071 J-1.1657 F83
X3.3775 Y19.7244 I-0.0705 J-1.1685
G1 Y19.7236
Y17.5125
G3 X3.5025 Y17.3875 I0.125 J0
G1 X5.6552
G3 X6.878 Y18.5981 I0.0517 J1.1706
X5.7186 Y19.7297 I-1.171 J-0.04
X4.6551 Y20.8826 I-1.1705 J-0.0128
G1 Z-0.4569 F13.12
G3 X4.6185 Y20.8854 I-0.1071 J-1.1657 F83
X3.3775 Y19.7244 I-0.0705 J-1.1685
G1 Y19.7236
Y17.5125
G3 X3.5025 Y17.3875 I0.125 J0
G1 X5.6552
G3 X6.878 Y18.5981 I0.0517 J1.1706
X5.7186 Y19.7297 I-1.171 J-0.04
X4.6551 Y20.8826 I-1.1705 J-0.0128
G1 Z-0.5711 F13.12
G3 X4.6185 Y20.8854 I-0.1071 J-1.1657 F83
X3.3775 Y19.7244 I-0.0705 J-1.1685
G1 Y19.7236
Y17.5125
G3 X3.5025 Y17.3875 I0.125 J0
G1 X5.6552
G3 X6.878 Y18.5981 I0.0517 J1.1706
X5.7186 Y19.7297 I-1.171 J-0.04
X4.6551 Y20.8826 I-1.1705 J-0.0128
G1 Z-0.6853 F13.12
G3 X4.6185 Y20.8854 I-0.1071 J-1.1657 F83
X3.3775 Y19.7244 I-0.0705 J-1.1685
G1 Y19.7236
Y17.5125
G3 X3.5025 Y17.3875 I0.125 J0
G1 X3.5908
Z-0.6595
X4.0908
Z-0.6853 F13.12
X5.1186 F83
Z-0.6595
X5.6186
Z-0.6853 F13.12
X5.6552 F83
G3 X6.878 Y18.5981 I0.0517 J1.1706
X5.7186 Y19.7297 I-1.171 J-0.04
X4.6551 Y20.8826 I-1.1705 J-0.0128
G1 Z-0.7995 F13.12
G3 X4.6185 Y20.8854 I-0.1071 J-1.1657 F83
X3.3775 Y19.7244 I-0.0705 J-1.1685
G1 Y19.7236
Y17.5125
G3 X3.5025 Y17.3875 I0.125 J0
G1 X3.5908
Z-0.6595
X4.0908
Z-0.7995 F13.12
X5.1186 F83
Z-0.6595
X5.6186
Z-0.7995 F13.12
X5.6552 F83
G3 X6.878 Y18.5981 I0.0517 J1.1706
X5.7186 Y19.7297 I-1.171 J-0.04
X4.6551 Y20.8826 I-1.1705 J-0.0128
(****Adding rapid traverse****)
    G0 X4.6551 Y20.8826 Z0.6
    G1 X4.6551 Y20.8826 Z0.6
G1 Z0.6
G90
G90
M5
(****Move Spindle up at end of program****)
    G1 Z0.6 F150.0
M30
